X: 1
T: Mouse in the Cupboard
R: jig
Z: 1997 by John Chambers <jc:trillian.mit.edu>
M: 6/8
L: 1/8
K: G
A \
| "G"BcB "C"AGE | "G"DGG "D7"FGA | "G"BAB "C"cBc | "D7"def "G"gdc \
| "G"BcB "C"AGE | "G"DGG "D7"FGA | "G"Bcd "D7"cAF | AGF "G"G2 :|
|: A \
| "G"BAB "C"cBc | "D7"def "G"g2d | "D7"def "G"gfg | "Am"a2g "D7"fdd \
| "G"dgg b2g | "Am"a2g "D7"fdc  | "G"Bcd "D7"cAF | AGF "G"G2 :|
